X:1
T:"Air" from Bach's Orchestral Suite No. 3 (BWV 1068)
T:Johann Sebastian Bach
%%score { ( 1 3 ) | 2 } 4
L:1/8
Q:1/2=60
M:4/4
K:D
V:1 treble nm="Piano" snm="Pno."
V:3 treble 
V:2 bass 
V:4 treble nm="Voice" snm="Vo."
V:1
 f8- | f8- | f2 bg{f} edcd | c4 B A3 | a2 =cB c2 ac | Bf=cB e^dag | B2 ed efge | AeBA dcgf | %8
 f6 ^ga | d2 d/e/f- feed | cB B/c/d- d2 cB |1 A8 :|2 A8 |: c4- cd/c/ B/c/A | aB =c2- cBAG | %15
 B2 b2- bagf | g4- g/f/e/d/ cB | ^AB c2- cd e2 | efgB ^AB f2 | edcB cd/e/ FE | ED D6 | d4- dfed | %22
 b2 EF ^GAa^g | f/e/a A2 B2- Bc/d/ | c3 B A4 | d2 B=c B^cfe | e2 cB cdgf | f2 ^dc deag | gdeB E4 | %29
 ACEA cceg | gefd- d3 g/a/ | d2 E2 Ffa=c' | b6 d2 | ce g4 B2 | A2 ef/g/- g f2 e | d/c/B- Bc dFcd | %36
 !fermata!d8 :| %37
V:2
"^D" D,2 D2"^F#m" C2 C,2 |"^Bm" B,,2 B,2"^D" A,2 A,,2 |"^GM7" G,,2 G,2"^G#o" ^G,2 ^G,,2 | %3
"^A" A,,2 A,2"^C#o" G,2 G,,2 |"^F#Φ7" F,,2 F,2"^F#Φ7/E" E,2 E,,2 |"^B7/D#" ^D,,2 ^D,2 B,,2 B,2 | %6
"^Em" E,,2 E,2"^G" D,2 D,,2 |"^A7" C,,2 C,2"^F#m7" A,,2 A,2 |"^D" D,2 D2"^F#m" C2 C,2 | %9
"^Bm" B,,2 B,2"^E" ^G,2 E,2 |"^DM7" A,2 D,2"^E7" E,2 E,,2 |1"^A" A,,B,,C,D,"^F#m7" E,G,F,E, :|2 %12
"^A" A,,8 |:"^A" A,,2 A,2"^C#o" G,2 G,,2 |"^F#Φ7" F,,2 F,2"^F#Φ7/E" E,2 E,,2 | %15
"^B7" ^D,,2 ^D,2 G,2 B,,2 |"^Em" E,2 E2"^G" D2 D,2 |"^C#o7" C,2 C2"^Em" B,2 B,,2 | %18
"^F#" ^A,,2 B,,2 C,2 A,,2 |"^Bm" B,,2"^C#o7" G,2 E,2 F,2 |"^Bm" B,,2 B,2"^D" A,2 A,,2 | %21
"^G#Φ7" ^G,,2 ^G,2"^D" F,2 F,,2 |"^E" E,,2 E,2"^E7" D,2 D,,2 |"^A" C,,2 C,2"^Bm" D,2"^E7" E,2 | %24
"^A" A,,2 A,2"^C#o" G,2 G,,2 |"^D" F,,2 F,2"^GM7" G,2 G,,2 |"^E" ^G,,2 ^G,2"^A7" A,2 A,,2 | %27
"^F#M7" ^A,,2 ^A,2"^B7" B,2 B,,2 |"^Em" E,2 E,2 D,2 D,2 |"^A7" C,2 C2 A,2 C2 | %30
"^D" D2 D,2"^F#o" =C,2 =C2 |"^Em7" B,2 B,,2"^D7" A,,2 A,2 |"^G" G,2 G,,2"^Bm" F,,2 F,2 | %33
"^C#Φ7" E,2 E,,2 D,,2 D,2 |"^A7" C,2 A,,2"^D" D,2"^G" G,2 |"^D" A,2 G,2"^A7" A,2 A,,2 | %36
"^D" !fermata!D,,8 :| %37
V:3
 x8 | x8 | x8 | x8 | x8 | x8 | x8 | x8 | x8 | x8 | x8 |1 x8 :|2 x8 |: x8 | x8 | x8 | x8 | x8 | x8 | %19
 x8 | x8 | x8 | x8 | x8 | x8 | x8 | x8 | x8 | x8 | x8 | x8 | x8 | x8 | x8 | x6 B2 | x8 | x8 :| %37
V:4
!pp!!pp!!pp! [DFA]4 [CFA]4 | [B,DF]4 [A,DF]4 | [G,B,DF]2 [G,B,D]2 [^G,B,D]4 | [A,CE]4 [G,CE]4 | %4
 [F,A,=CE]4 [E,F,A,C]4 | [^D,F,A,B,]4 [D,F,A,B,]4 | [E,G,B,]4 [D,G,B,]4 | [A,CEG]4 [CEFA]4 | %8
 [DFA]4 [CFA]4 | [B,DF]4 [B,E^GB]4 | [A,CE]2 [DFA]2 [B,DEA]2 [B,DE^G]2 |1 [A,CE]4 [A,CEG]4 :|2 %12
 [A,CE]8 |: [A,CE]4 [G,CE]4 | [F,A,=CE]4 [E,F,A,C]4 | [^D,F,A,B,]4 [D,F,A,B,]4 | %16
 [E,G,B,]4 [D,G,B,]4 | [CEG^A]4 [B,EGA]4 | [CF^A]4 [Acf]4 | [Bdf]2 [G_Bce]2 [EGBc]4 | %20
 [Bdf]4 [Adf]4 | [^GBdf]4 [FAd]4 | [E^GB]4 [DGBe]4 | [CEA]4 [DFB]2 [E^GBd]2 | [Ace]4 [Gce]4 | %25
 [FAd]4 [GBdf]4 | [^GBe]4 [Aceg]4 | [^Ac^ef]4 [B^dfa]4 | [EGB]8 | [CEGA]4 [Aceg]4 | %30
 [DFA]4 [=CFA]4 | [GBde]4 [A=cdf]4 | [GBd]4 [FBd]4 | [EGBc]8 | [CEGA]4 [DFA]2 [DGB]2 | %35
 [Adf]4 [GAce]2 [Aceg]2 | [DFA]8 :| %37

